X: 68
T:The Plough and the Stars
M:4/4
L:1/8
R:Reel
D:Session tape - Corofin, Clare
Z:Bernie Stocks
H:This tune is part of a set; Boys of Ballysadare in F then 'G'
H:then this one, then this one in 'A'
K:G
GEDE GABd | gabg aged | B3d e2de | gedB c2BA | GEDE GABd | gabg aged |\
Bd~d2 eBdB |1 AGAB G2BA :|2 AGAB GABd || g3b a3b | gabg aged | Bd~d2 ed~d2 |\
gedB c2BA| GEDE GABd | gabg aged | Bd~d2 eBdB |1 AGAB G2Bd :|2 AGAB GABA ||
<end>
<start>
